src/img/filter.svg

<svg width="14" height="11" viewBox="0 0 14 11" fill="none" xmlns="http://www.w3.org/2000/svg">
<path d="M13.5882 0.611885C13.5882 0.273947 13.2765 0 12.892 0H1.57857C1.43521 0 1.2953 0.0389222 1.17805 0.111403C0.863549 0.305813 0.787936 0.687521 1.00913 0.963934L5.11111 6.08956L5.12263 9.81849C5.12334 10.0513 5.20209 10.2787 5.34898 10.4724C5.76187 11.0167 6.59868 11.1638 7.21805 10.8009L8.68313 9.94249C9.0724 9.71441 9.30534 9.32971 9.30315 8.91855L9.28827 6.11211L13.459 0.966946C13.5431 0.863259 13.5882 0.739149 13.5882 0.611885ZM7.89384 5.72326L7.91081 8.9242L6.51484 9.74217L6.50234 5.70077L2.91945 1.22377H11.5412L7.89384 5.72326Z" fill="#2E5BFF"/>
</svg>

<svg width="14" height="11" fill="none" xmlns="http://www.w3.org/2000/svg"><path d="M13.588.612c0-.338-.311-.612-.696-.612H1.579a.764.764 0 00-.4.111c-.315.195-.391.577-.17.853L5.111 6.09l.012 3.728c0 .233.08.46.226.654.413.545 1.25.692 1.869.329l1.465-.859c.39-.228.622-.612.62-1.023l-.015-2.807L13.46.967a.563.563 0 00.13-.355zM7.894 5.723l.017 3.201-1.396.818-.013-4.041L2.92 1.224h8.622l-3.647 4.5z" fill="#2E5BFF"/></svg>
